lib/healthicons/icons/outline/symbols/i_certificate_paper.svg

<svg fill="none" height="48" viewBox="0 0 48 48" width="48" xmlns="http://www.w3.org/2000/svg"><g clip-rule="evenodd" fill="#333" fill-rule="evenodd"><path d="m14 6c-1.1046 0-2 .89543-2 2v28c0 1.1046.8954 2 2 2h11v2h-11c-2.2091 0-4-1.7909-4-4v-28c0-2.20914 1.7909-4 4-4h20c2.2091 0 4 1.79086 4 4v28c0 2.2091-1.7909 4-4 4h-3v-2h3c1.1046 0 2-.8954 2-2v-28c0-1.10457-.8954-2-2-2z"/><path d="m18 11c0-.5523.4477-1 1-1h10c.5523 0 1 .4477 1 1s-.4477 1-1 1h-10c-.5523 0-1-.4477-1-1z"/><path d="m14 17c0-.5523.4477-1 1-1h18c.5523 0 1 .4477 1 1s-.4477 1-1 1h-18c-.5523 0-1-.4477-1-1z"/><path d="m14 21c0-.5523.4477-1 1-1h18c.5523 0 1 .4477 1 1s-.4477 1-1 1h-18c-.5523 0-1-.4477-1-1z"/><path d="m14 25c0-.5523.4477-1 1-1h18c.5523 0 1 .4477 1 1s-.4477 1-1 1h-18c-.5523 0-1-.4477-1-1z"/><path d="m28 35c1.1046 0 2-.8954 2-2s-.8954-2-2-2-2 .8954-2 2 .8954 2 2 2zm0 2c2.2091 0 4-1.7909 4-4s-1.7909-4-4-4-4 1.7909-4 4 1.7909 4 4 4z"/><path d="m27 35h-2v9l3-1.5 3 1.5v-9h-2v5.7639l-1-.5-1 .5z"/></g></svg>

<svg width="48" height="48" viewBox="0 0 48 48" fill="none" xmlns="http://www.w3.org/2000/svg">
<path d="M18 11C18 10.4477 18.4477 10 19 10L29 10C29.5523 10 30 10.4477 30 11C30 11.5523 29.5523 12 29 12L19 12C18.4477 12 18 11.5523 18 11Z" fill="#333333"/>
<path d="M15 16C14.4477 16 14 16.4477 14 17C14 17.5523 14.4477 18 15 18H33C33.5523 18 34 17.5523 34 17C34 16.4477 33.5523 16 33 16H15Z" fill="#333333"/>
<path d="M14 21C14 20.4477 14.4477 20 15 20H33C33.5523 20 34 20.4477 34 21C34 21.5523 33.5523 22 33 22H15C14.4477 22 14 21.5523 14 21Z" fill="#333333"/>
<path d="M15 24C14.4477 24 14 24.4477 14 25C14 25.5523 14.4477 26 15 26H33C33.5523 26 34 25.5523 34 25C34 24.4477 33.5523 24 33 24H15Z" fill="#333333"/>
<path fill-rule="evenodd" clip-rule="evenodd" d="M38 36C38 38.2091 36.2091 40 34 40H31V44L28 42.5L25 44V40H14C11.7909 40 10 38.2091 10 36V8C10 5.79086 11.7909 4 14 4H34C36.2091 4 38 5.79086 38 8V36ZM14 6C12.8954 6 12 6.89543 12 8V36C12 37.1046 12.8954 38 14 38H25V35.6458C24.3776 34.9407 24 34.0144 24 33C24 30.7909 25.7909 29 28 29C30.2091 29 32 30.7909 32 33C32 34.0144 31.6224 34.9407 31 35.6458V38H34C35.1046 38 36 37.1046 36 36V8C36 6.89543 35.1046 6 34 6H14ZM29 36.874C28.6804 36.9562 28.3453 37 28 37C27.6547 37 27.3196 36.9562 27 36.874V40.7639L28 40.2639L29 40.7639V36.874ZM28 35C29.1046 35 30 34.1046 30 33C30 31.8954 29.1046 31 28 31C26.8954 31 26 31.8954 26 33C26 34.1046 26.8954 35 28 35Z" fill="#333333"/>
</svg>
